site/pages/about-us/social-slice/icons/instagram/instagram.svg

<?xml version="1.0" encoding="UTF-8"?>
<svg width="20px" height="20px" viewBox="0 0 20 20" version="1.1" xmlns="http://www.w3.org/2000/svg" xmlns:xlink="http://www.w3.org/1999/xlink">
    <!-- Generator: sketchtool 41.2 (35397) - http://www.bohemiancoding.com/sketch -->
    <title>Instagram</title>
    <defs></defs>
    <g stroke="none" stroke-width="1" fill="none" fill-rule="evenodd">
        <g transform="translate(-425.000000, -22.000000)" fill="#212121">
            <g transform="translate(-630.000000, 10.000000)">
                <g>
                    <g transform="translate(1055.000000, 12.000000)">
                        <g>
                            <path d="M9.9968254,1.80126984 C12.6661111,1.80126984 12.9822619,1.81142857 14.0363889,1.85952381 C15.0110714,1.90400794 15.5403968,2.06686508 15.8926984,2.20373016 C16.3592857,2.38507937 16.6923413,2.60174603 17.0421429,2.95154762 C17.3919444,3.30134921 17.6086111,3.63440476 17.7899206,4.10099206 C17.9268254,4.45329365 18.0896825,4.98261905 18.1341667,5.9572619 C18.1822619,7.01142857 18.1924206,7.32757937 18.1924206,9.99686508 C18.1924206,12.6661508 18.1822619,12.9823016 18.1341667,14.0364286 C18.0896825,15.0111111 17.9268254,15.5404365 17.7899206,15.8927381 C17.6086111,16.3593254 17.3919444,16.692381 17.0421429,17.0421825 C16.6923413,17.3919841 16.3592857,17.6086508 15.8926984,17.7899603 C15.5403968,17.9268651 15.0110714,18.0897222 14.0363889,18.1342063 C12.9824206,18.1823016 12.6662698,18.1924603 9.9968254,18.1924603 C7.32738095,18.1924603 7.01123016,18.1823016 5.9572619,18.1342063 C4.98257937,18.0897222 4.45325397,17.9268651 4.10099206,17.7899603 C3.63436508,17.6086508 3.30130952,17.3919841 2.95150794,17.0421825 C2.60170635,16.692381 2.38503968,16.3593254 2.20373016,15.8927381 C2.0668254,15.5404365 1.90396825,15.0111111 1.85948413,14.0364683 C1.81138889,12.9823016 1.80123016,12.6661508 1.80123016,9.99686508 C1.80123016,7.32757937 1.81138889,7.01142857 1.85948413,5.95730159 C1.90396825,4.98261905 2.0668254,4.45329365 2.20373016,4.10099206 C2.38503968,3.63440476 2.60170635,3.30134921 2.95150794,2.95154762 C3.30130952,2.60174603 3.63436508,2.38507937 4.10099206,2.20373016 C4.45325397,2.06686508 4.98257937,1.90400794 5.95722222,1.85952381 C7.01138889,1.81142857 7.32753968,1.80126984 9.9968254,1.80126984 M9.9968254,0 C7.2818254,0 6.94142857,0.0115079365 5.87515873,0.0601587302 C4.81107143,0.108730159 4.08440476,0.277698413 3.44849206,0.52484127 C2.79111111,0.78031746 2.23361111,1.12214286 1.67785714,1.67789683 C1.12210317,2.23365079 0.780277778,2.79115079 0.524801587,3.44853175 C0.27765873,4.08444444 0.108690476,4.81111111 0.0601190476,5.87519841 C0.011468254,6.94142857 0,7.28186508 0,9.99686508 C0,12.7118651 0.011468254,13.0523016 0.0601190476,14.1185317 C0.108690476,15.182619 0.27765873,15.9092857 0.524801587,16.5451984 C0.780277778,17.2025397 1.12210317,17.7600794 1.67785714,18.3158333 C2.23361111,18.8715873 2.79111111,19.2134127 3.44849206,19.4688889 C4.08440476,19.7160317 4.81107143,19.885 5.87515873,19.9335714 C6.94142857,19.9822222 7.2818254,19.9936905 9.9968254,19.9936905 C12.7118254,19.9936905 13.0522619,19.9822222 14.1184921,19.9335714 C15.1825794,19.885 15.909246,19.7160317 16.5451587,19.4688889 C17.2025397,19.2134127 17.7600397,18.8715873 18.3157937,18.3158333 C18.8715476,17.7600794 19.213373,17.2025794 19.4688492,16.5451984 C19.7159921,15.9092857 19.8849603,15.182619 19.9335317,14.1185317 C19.9821825,13.0523016 19.9936905,12.7118651 19.9936905,9.99686508 C19.9936905,7.28186508 19.9821825,6.94142857 19.9335317,5.87519841 C19.8849603,4.81111111 19.7159921,4.08444444 19.4688492,3.44853175 C19.213373,2.79115079 18.8715476,2.23365079 18.3157937,1.67789683 C17.7600397,1.12214286 17.2025397,0.78031746 16.5451587,0.52484127 C15.909246,0.277698413 15.1825794,0.108730159 14.1184921,0.0601587302 C13.0522619,0.0115079365 12.7118254,0 9.9968254,0"></path>
                            <path d="M10.1335317,5 C7.29837302,5 5,7.29837302 5,10.1335317 C5,12.9686905 7.29837302,15.2670635 10.1335317,15.2670635 C12.9686905,15.2670635 15.2670635,12.9686905 15.2670635,10.1335317 C15.2670635,7.29837302 12.9686905,5 10.1335317,5 L10.1335317,5 Z M10.1335317,13.4658333 C8.2931746,13.4658333 6.80123016,11.9738889 6.80123016,10.1335317 C6.80123016,8.2931746 8.2931746,6.80123016 10.1335317,6.80123016 C11.9738889,6.80123016 13.4658333,8.2931746 13.4658333,10.1335317 C13.4658333,11.9738889 11.9738889,13.4658333 10.1335317,13.4658333 L10.1335317,13.4658333 Z"></path>
                        </g>
                    </g>
                </g>
            </g>
        </g>
    </g>
</svg>

<svg width="20" height="20" viewBox="0 0 20 20" xmlns="http://www.w3.org/2000/svg"><g fill="#212121" fill-rule="evenodd"><path d="M9.997 1.801c2.67 0 2.985.01 4.04.059.974.044 1.503.207 1.856.344.466.181.8.398 1.15.748.349.35.566.682.747 1.149.137.352.3.882.344 1.856.048 1.054.058 1.37.058 4.04s-.01 2.985-.058 4.04c-.044.974-.207 1.503-.344 1.856-.181.466-.398.8-.748 1.15-.35.349-.683.566-1.15.747-.352.137-.88.3-1.856.344-1.054.048-1.37.058-4.04.058-2.669 0-2.985-.01-4.039-.058-.974-.044-1.504-.207-1.856-.344a3.097 3.097 0 0 1-1.15-.748 3.097 3.097 0 0 1-.747-1.15c-.137-.352-.3-.88-.345-1.856-.048-1.054-.058-1.37-.058-4.04 0-2.668.01-2.985.058-4.039.045-.974.208-1.504.345-1.856.181-.467.398-.8.748-1.15.35-.35.682-.566 1.149-.747.352-.137.882-.3 1.856-.344 1.054-.049 1.37-.059 4.04-.059m0-1.801C7.282 0 6.94.012 5.875.06 4.811.11 4.085.278 3.448.525a4.9 4.9 0 0 0-1.77 1.153 4.9 4.9 0 0 0-1.153 1.77C.278 4.085.109 4.812.06 5.876.011 6.941 0 7.282 0 9.997s.011 3.055.06 4.122c.049 1.064.218 1.79.465 2.426a4.9 4.9 0 0 0 1.153 1.77 4.9 4.9 0 0 0 1.77 1.154c.636.247 1.363.416 2.427.465 1.066.048 1.407.06 4.122.06s3.055-.012 4.121-.06c1.065-.049 1.791-.218 2.427-.465a4.9 4.9 0 0 0 1.77-1.153 4.9 4.9 0 0 0 1.154-1.77c.247-.637.416-1.363.465-2.427.048-1.067.06-1.407.06-4.122s-.012-3.056-.06-4.122c-.049-1.064-.218-1.79-.465-2.426a4.9 4.9 0 0 0-1.153-1.771 4.9 4.9 0 0 0-1.77-1.153C15.908.278 15.182.109 14.117.06 13.052.012 12.712 0 9.997 0"/><path d="M10.134 5a5.134 5.134 0 1 0 0 10.267 5.134 5.134 0 0 0 0-10.267zm0 8.466a3.332 3.332 0 1 1 0-6.665 3.332 3.332 0 0 1 0 6.665z"/></g></svg>
